X: 1307
T: Boxers Creek
B: australian traditional tunes wiki
M:4/4
L:1/8
R: Step Tune
Q: 1/4=100
K:Dmaj
V:1 
a|:"D"af df Ad fa|"Em"ag- gb- bg eg|"A7"ae ce Ac eg|"Bm"gf- fb- ba fa|
|"D"af df Ad fa|"Em"ag- gb- bg eg|"G"g2g2gb ag|1"A7"fe dc"D" d3a:|2"A7"fe dc"D" d3A||
|:"D"df af "A7"gf eA|"G"Bd- dd "D"AFD2|"G"BA Bd "A7"cB eg|"Bm"fe dB"A7"A2A2|
"D"df af "A7"gf eA| "G"Bd- dd "D"AFD2|"G"BA Bd "A7"ed ef|ge ce"D"d3A:|
% abcbook-tune_id 6342d53af2961e6600dcc58d


% abcbook-boost 0
% abcbook-tablature 
% abcbook-transpose 
% abcbook-lastupdated 1665324358359
% abcbook-soundfonts 
% abcbook-repeats 1
% NFF Book 2015

